src/assets/img/api.svg

<svg width="58" height="60" viewBox="0 0 58 60" fill="none" xmlns="http://www.w3.org/2000/svg">
<path d="M21.7256 54.8917C17.6823 53.7545 14.1263 51.6607 11.0216 48.7365C10.0469 49.0794 9.05411 49.4224 8.04328 49.7473C7.57396 49.8917 7.10465 49.8375 6.61728 49.657C5.75086 49.3321 5.22739 48.7004 4.84833 47.9242C4.32486 46.8953 3.65699 45.9567 3.13353 44.9278C2.66421 43.9711 1.97829 43.1408 1.58118 42.148C1.38263 41.6607 0.85916 41.3357 0.85916 40.722C0.389846 39.9639 0.84111 39.296 1.11187 38.6282C1.18407 38.4477 1.27432 38.213 1.43678 38.1408C2.0866 37.852 2.41151 37.2022 2.95302 36.8051C3.20573 36.6245 3.47649 36.426 3.7653 36.2094C3.35014 34.1336 2.98912 32.0578 2.98912 29.9278C2.98912 27.8159 3.36819 25.7762 3.7653 23.7545C3.06133 23.1047 2.41151 22.4729 1.72559 21.8773C1.02162 21.2635 0.606453 20.5054 0.696705 19.7112C0.750857 19.278 0.877211 18.8087 1.09382 18.4477C1.76169 17.3827 2.37541 16.2635 3.02523 15.1805C3.54869 14.3141 3.99995 13.4116 4.57757 12.5632C4.88443 12.13 5.06494 11.6245 5.3718 11.1733C5.96746 10.3249 7.1588 9.90975 8.13353 10.1986C8.99995 10.4513 9.81223 10.8303 10.6967 10.9928C10.787 11.0108 10.8592 11.1372 10.9494 11.2274C14.0722 8.3213 17.6281 6.24549 21.7075 5.0361C21.87 4.54874 21.9061 4.02527 22.1046 3.51986C22.2491 3.14079 22.213 2.67148 22.2852 2.25632C22.4837 1.17329 23.1516 0.541516 24.1083 0.216606C24.4512 0.108303 24.7942 0 25.2093 0C27.7364 0.0361011 30.2635 0.0361011 32.7906 0C33.5126 0 34.1263 0.288809 34.7039 0.613718C35.2274 0.884477 35.5162 1.46209 35.6606 2.00361C35.9133 2.99639 36.0577 4.00722 36.2563 5.05415C40.3176 6.20939 43.8736 8.2852 46.9783 11.2094C47.953 10.8664 48.9458 10.5235 49.9566 10.1986C50.426 10.0542 50.8953 10.1083 51.3826 10.2888C52.2491 10.6137 52.7725 11.2455 53.1516 12.0217C53.675 13.0505 54.3429 13.9892 54.8664 15.0181C55.3357 15.9747 56.0216 16.8051 56.4187 17.7978C56.6173 18.2852 57.1408 18.6101 57.1408 19.2238C57.6101 19.982 57.1588 20.6498 56.888 21.3177C56.8158 21.4982 56.7256 21.7329 56.5631 21.8051C55.9133 22.0939 55.5884 22.7437 55.0469 23.1408C54.7942 23.3213 54.5234 23.5199 54.2346 23.7365C54.6498 25.8123 55.0108 27.8881 55.0108 30.018C55.0108 32.13 54.6859 34.1697 54.2346 36.1913C54.9386 36.8412 55.5884 37.4729 56.2743 38.0686C56.9783 38.6823 57.3935 39.4404 57.3032 40.2347C57.2491 40.6679 57.1408 41.1372 56.9061 41.4982C56.2563 42.5451 55.6426 43.6282 55.0108 44.6931C54.2166 46.0108 53.5667 47.4368 52.6462 48.6823C52.4837 49.3682 51.8339 49.4224 51.3646 49.6751C50.8592 49.9458 50.3537 49.8736 49.7942 49.7112C48.9639 49.4765 48.1696 49.0614 47.3032 48.9531C47.213 48.935 47.1408 48.8087 47.0505 48.7184C43.9278 51.6607 40.3899 53.7545 36.2563 54.9278C36.0577 55.9025 35.8772 56.9134 35.6606 57.9061C35.444 58.8809 34.7942 59.4946 33.8736 59.7834C33.5306 59.8917 33.1696 60 32.7725 60C30.2454 59.9639 27.7184 59.9639 25.1913 60C24.4693 60 23.8556 59.7112 23.2779 59.3863C22.7545 59.1155 22.4476 58.5379 22.3393 57.9964C22.1407 56.9314 21.9422 55.9386 21.7256 54.8917ZM22.8989 38.9892C23.2599 38.7906 23.675 38.6643 23.6931 38.231C23.7292 37.5812 23.8195 36.9134 23.675 36.2996C23.4223 35.2527 22.9711 34.2419 22.7003 33.1949C22.5198 32.5271 22.1227 31.8953 22.1407 31.1733C21.5631 29.7473 21.2021 28.2491 20.7148 26.8051C20.3176 25.6137 20.0288 24.3863 19.5956 23.213C19.361 22.5632 19.3068 21.8412 18.8736 21.2635C18.8375 21.2094 18.8195 21.1733 18.8195 21.1733C18.3321 20.8484 17.8267 20.9567 17.3935 20.9567C17.1408 21.1913 16.9241 21.3899 16.7256 21.5704C16.7075 22.148 16.2924 22.5993 16.3646 23.1588C15.7328 24.5668 15.462 26.083 14.9386 27.5271C14.6678 28.2671 14.5054 29.0253 14.2888 29.7834C14.0902 30.5415 13.657 31.2274 13.657 32.0397C12.9711 33.574 12.6281 35.2166 12.1227 36.8231C11.9963 37.2202 11.9241 37.5993 12.1769 37.9783C12.2491 38.0866 12.213 38.2491 12.213 38.231C12.5018 38.5379 12.7184 38.7545 12.8989 38.9711C13.2418 38.9711 13.6028 38.9711 13.9819 38.9711C14.2346 38.6462 14.4873 38.3394 14.722 38.0325C14.6678 37.0036 14.8844 36.3177 15.3537 35.2166C17.1227 35.2166 18.8917 35.2166 20.6606 35.2166C20.805 35.7942 20.8772 36.3538 21.0758 36.8773C21.166 37.0939 21.2563 37.3105 21.2202 37.5271C21.166 38.1949 21.3826 38.7184 22.1407 38.9711C22.3213 38.9892 22.592 38.9892 22.8989 38.9892ZM27.1227 38.9892C27.6101 38.9531 28.1696 39.0975 28.5667 38.7004C28.7111 38.5199 28.8375 38.3394 29.018 38.0866C29.018 36.2816 29.018 34.3863 29.018 32.491C30.3357 32.491 31.6353 32.4368 32.9169 32.509C33.6931 32.5451 34.3249 32.3105 34.9386 31.9314C35.2274 31.7509 35.4801 31.4801 35.7328 31.2274C36.4007 30.5776 36.7256 29.7834 36.7436 28.8448C36.7436 27.3646 36.7436 25.9025 36.7436 24.4224C36.7436 24.2058 36.6895 23.9711 36.6353 23.7545C36.4368 22.9783 36.0216 22.4007 35.462 21.8953C34.8122 21.2996 34.0541 20.9386 33.1516 20.9386C31.1299 20.9386 29.1263 20.9386 27.0866 20.9386C26.888 21.1552 26.6895 21.3718 26.4548 21.5884C26.4548 27.148 26.4548 32.7437 26.4548 38.3574C26.6895 38.556 26.9061 38.7726 27.1227 38.9892ZM40.1191 38.9892C41.3646 38.9892 42.6281 38.9892 43.8736 38.9892C44.0902 38.7726 44.3068 38.556 44.5234 38.3574C44.5234 38.0144 44.5234 37.6895 44.5234 37.3466C44.5234 37.3105 44.5234 37.2924 44.5234 37.2744C44.2527 36.769 43.8375 36.4621 43.296 36.4079C43.296 32.0939 43.296 27.7978 43.296 23.5921C43.6931 23.3935 44.0361 23.213 44.4332 22.9964C44.4873 22.5271 44.5234 22.0397 44.5595 21.6968C44.2707 21.3718 44.0722 21.1372 43.9097 20.9567C42.6101 20.9567 41.3465 20.9567 40.2274 20.9567C39.9205 21.2274 39.7039 21.426 39.4332 21.6787C39.4873 22.1119 39.5595 22.5993 39.6137 23.0144C40.0469 23.231 40.3898 23.4116 40.6967 23.574C40.6967 27.87 40.6967 32.1661 40.6967 36.426C40.5162 36.4621 40.3176 36.426 40.2454 36.5162C39.9927 36.769 39.5595 36.8412 39.4693 37.2563C39.4693 37.6173 39.4693 37.9783 39.4693 38.3394C39.6859 38.556 39.9025 38.7726 40.1191 38.9892Z" fill="#930f50"/>
</svg>

<svg width="58" height="60" fill="none" xmlns="http://www.w3.org/2000/svg"><path d="M21.726 54.892c-4.044-1.138-7.6-3.231-10.704-6.156-.975.343-1.968.686-2.979 1.011-.469.145-.938.09-1.426-.09-.866-.325-1.39-.957-1.769-1.733-.523-1.029-1.191-1.967-1.714-2.996-.47-.957-1.156-1.787-1.553-2.78-.198-.487-.722-.812-.722-1.426-.47-.758-.018-1.426.253-2.094.072-.18.162-.415.325-.487.65-.289.975-.939 1.516-1.336.253-.18.523-.379.812-.596-.415-2.075-.776-4.151-.776-6.281 0-2.112.38-4.152.776-6.174-.704-.65-1.353-1.281-2.04-1.877-.703-.613-1.119-1.372-1.028-2.166.054-.433.18-.902.397-1.263.668-1.065 1.281-2.184 1.931-3.268.524-.866.975-1.768 1.553-2.617.306-.433.487-.939.794-1.39.595-.848 1.787-1.263 2.762-.974.866.252 1.678.631 2.563.794.09.018.162.144.252.234 3.123-2.906 6.68-4.982 10.758-6.19.163-.488.2-1.012.398-1.517.144-.38.108-.849.18-1.264.199-1.083.867-1.714 1.823-2.04C24.451.109 24.794 0 25.21 0c2.527.036 5.055.036 7.582 0 .722 0 1.335.289 1.913.614.523.27.812.848.957 1.39.252.992.397 2.003.595 3.05 4.062 1.155 7.618 3.231 10.722 6.155.975-.343 1.968-.685 2.979-1.01.469-.145.938-.09 1.426.09.866.325 1.39.957 1.769 1.733.523 1.028 1.19 1.967 1.714 2.996.47.957 1.156 1.787 1.553 2.78.198.487.722.812.722 1.426.47.758.018 1.426-.253 2.094-.072.18-.162.415-.325.487-.65.289-.975.939-1.516 1.336-.253.18-.524.379-.812.596.415 2.075.776 4.151.776 6.281 0 2.112-.325 4.152-.776 6.173.704.65 1.353 1.282 2.04 1.878.703.613 1.119 1.371 1.028 2.166-.054.433-.162.902-.397 1.263-.65 1.047-1.263 2.13-1.895 3.195-.794 1.318-1.444 2.744-2.365 3.99-.162.685-.812.74-1.281.992-.506.27-1.011.199-1.57.036-.831-.234-1.625-.65-2.492-.758-.09-.018-.162-.144-.252-.235-3.123 2.943-6.661 5.036-10.795 6.21-.198.975-.379 1.985-.595 2.978-.217.975-.867 1.589-1.787 1.877-.343.109-.704.217-1.102.217a265.363 265.363 0 0 0-7.58 0c-.723 0-1.336-.289-1.914-.614-.523-.27-.83-.848-.939-1.39a157.72 157.72 0 0 0-.613-3.104Zm1.173-15.903c.36-.198.776-.325.794-.758.036-.65.127-1.318-.018-1.931-.253-1.047-.704-2.058-.975-3.105-.18-.668-.577-1.3-.56-2.022-.577-1.426-.938-2.924-1.425-4.368-.397-1.191-.686-2.419-1.12-3.592-.234-.65-.288-1.372-.721-1.95a.926.926 0 0 1-.054-.09c-.488-.325-.993-.216-1.427-.216-.252.234-.469.433-.667.613-.018.578-.434 1.03-.361 1.589-.632 1.408-.903 2.924-1.426 4.368-.271.74-.434 1.498-.65 2.256-.199.758-.632 1.444-.632 2.257-.686 1.534-1.029 3.177-1.534 4.783-.127.397-.199.776.054 1.155.072.109.036.271.036.253.289.307.505.523.686.74h1.083c.253-.325.505-.632.74-.938-.054-1.03.162-1.715.632-2.816h5.307c.144.577.216 1.137.415 1.66.09.217.18.433.144.65-.054.668.163 1.191.92 1.444.181.018.452.018.759.018Zm4.224 0c.487-.036 1.047.108 1.444-.289.144-.18.27-.36.451-.613V32.49c1.318 0 2.617-.054 3.899.018.776.036 1.408-.199 2.022-.578.288-.18.541-.45.794-.704.668-.65.993-1.444 1.01-2.382v-4.423c0-.216-.053-.45-.108-.668-.198-.776-.613-1.353-1.173-1.859-.65-.595-1.408-.956-2.31-.956h-6.065c-.199.216-.398.433-.632.65v16.768c.235.199.451.416.668.632Zm12.996 0h3.755c.216-.216.433-.433.65-.632v-1.083c-.271-.505-.687-.812-1.228-.866V23.592c.397-.198.74-.379 1.137-.596.054-.469.09-.956.127-1.3-.29-.324-.488-.559-.65-.74h-3.683c-.306.271-.523.47-.794.723.054.433.127.92.18 1.335.434.217.777.398 1.084.56v12.852c-.18.036-.38 0-.452.09-.252.253-.685.325-.776.74v1.083l.65.65Z" fill="#930f50"/></svg>
